Sources/FrostedUI/Resources/Icons.xcassets/discord16.imageset/discord-16.svg

<svg width="16" height="16" viewBox="0 0 16 16" fill="none" xmlns="http://www.w3.org/2000/svg" data-fui-icon="true">
  <path
    d="M9.90295 2.53223C10.7462 2.67567 11.57 2.91632 12.358 3.24805L12.694 3.39551L12.8453 3.46582L12.9391 3.60352C14.4599 5.83913 15.223 8.37885 14.943 11.2998L14.9176 11.5654L14.7037 11.7246C13.6695 12.4933 12.5107 13.0768 11.2789 13.4502L10.8746 13.5732L10.6227 13.2334C10.3615 12.8811 10.1295 12.5079 9.92639 12.1191C9.29756 12.2717 8.65146 12.3525 8.00061 12.3525C7.34853 12.3525 6.70087 12.2713 6.07092 12.1182C5.86771 12.5071 5.63641 12.8808 5.37561 13.2334L5.12366 13.5742L4.71838 13.4502C3.48806 13.0754 2.33026 12.4914 1.29651 11.7236L1.08264 11.5645L1.05725 11.2988C0.818592 8.78124 1.30055 6.21698 3.05432 3.6084L3.14807 3.46777L3.30139 3.39746C4.19059 2.98857 5.12936 2.69749 6.09338 2.53223L6.51233 2.46094L6.71936 2.83203C6.77991 2.94092 6.83686 3.05247 6.89221 3.16406C7.62735 3.08529 8.36898 3.08535 9.10413 3.16406C9.15959 3.05222 9.21722 2.94117 9.27795 2.83203L9.48401 2.46094L9.90295 2.53223ZM10.0162 4.05078L9.83362 4.47852L9.37463 4.4082C8.46304 4.27011 7.53525 4.27018 6.62366 4.4082L6.1637 4.47852L5.98108 4.05078C5.94511 3.96634 5.90619 3.88266 5.86682 3.7998C5.21208 3.94176 4.57281 4.14904 3.95862 4.41895C2.50804 6.63779 2.07807 8.78676 2.23108 10.915C2.97918 11.4403 3.79362 11.8624 4.65393 12.166C4.68169 12.1234 4.71007 12.0812 4.73694 12.0381C4.55043 11.9474 4.36666 11.8501 4.18811 11.7441L3.40588 11.2793L4.14124 10.7432C4.22554 10.6817 4.30951 10.6166 4.39612 10.5498L4.68713 10.3262L5.01917 10.4824C5.95188 10.9233 6.97015 11.1523 8.00061 11.1523C9.03086 11.1522 10.0485 10.9233 10.9811 10.4824L11.3248 10.3203L11.6188 10.5615C11.6968 10.6255 11.7718 10.6827 11.8434 10.7314L12.6227 11.2627L11.8121 11.7441C11.6326 11.8507 11.4479 11.948 11.2604 12.0391C11.2872 12.0821 11.3157 12.1245 11.3434 12.167C12.2046 11.8644 13.0197 11.4426 13.7682 10.917C13.9454 8.46844 13.3056 6.33509 12.0377 4.41699C11.424 4.14708 10.7849 3.94 10.1305 3.79883C10.091 3.88198 10.0523 3.96601 10.0162 4.05078ZM5.87268 7.19824C6.51985 7.19828 7.03681 7.77912 7.026 8.4873C7.01489 9.19578 6.51796 9.77246 5.87463 9.77246C5.2434 9.77246 4.72229 9.19578 4.72229 8.4873C4.72252 7.7791 5.22548 7.19824 5.87268 7.19824ZM10.1276 7.19824C10.7756 7.19846 11.2888 7.77924 11.278 8.4873C11.2669 9.19565 10.7707 9.77224 10.1276 9.77246C9.4953 9.77246 8.97522 9.19578 8.97522 8.4873C8.97545 7.7791 9.47933 7.19824 10.1276 7.19824Z"
    fill="currentColor"
  />
</svg>

<svg xmlns="http://www.w3.org/2000/svg" width="16" height="16" fill="none" data-fui-icon="true" viewBox="0 0 16 16"><path fill="currentColor" d="M9.903 2.532c.843.144 1.667.384 2.455.716l.336.148.151.07.094.138c1.52 2.235 2.284 4.775 2.004 7.696l-.025.265-.214.16a11.2 11.2 0 0 1-3.425 1.725l-.404.123-.252-.34a8.4 8.4 0 0 1-.697-1.114 8.2 8.2 0 0 1-1.925.233c-.652 0-1.3-.08-1.93-.234a8.5 8.5 0 0 1-.695 1.115l-.252.341-.406-.124a11.2 11.2 0 0 1-3.421-1.726l-.214-.16-.026-.265c-.238-2.518.244-5.082 1.997-7.69l.094-.141.153-.07c.89-.41 1.828-.7 2.792-.866l.42-.071.206.371q.09.164.173.332a10.4 10.4 0 0 1 2.212 0q.083-.168.174-.332l.206-.371zm.113 1.519-.182.428-.46-.07a9.2 9.2 0 0 0-2.75 0l-.46.07-.183-.428a7 7 0 0 0-.114-.251 10 10 0 0 0-1.908.619c-1.451 2.219-1.88 4.368-1.728 6.496.748.525 1.563.947 2.423 1.251l.083-.128a8 8 0 0 1-.549-.294l-.782-.465.735-.536q.127-.092.255-.193l.291-.224.332.156a6.98 6.98 0 0 0 5.962 0l.344-.162.294.242q.117.095.224.17l.78.53-.81.482q-.27.16-.553.295l.083.128a10 10 0 0 0 2.425-1.25c.177-2.449-.462-4.582-1.73-6.5a10 10 0 0 0-1.908-.618q-.06.124-.114.252M5.873 7.198c.647 0 1.164.581 1.153 1.29-.011.708-.508 1.284-1.151 1.284-.632 0-1.153-.576-1.153-1.285 0-.708.503-1.289 1.15-1.289m4.255 0c.648 0 1.16.581 1.15 1.29-.011.708-.507 1.284-1.15 1.284-.633 0-1.153-.576-1.153-1.285 0-.708.504-1.289 1.153-1.289"/></svg>
